icons/syringe-line.svg

<svg xmlns="http://www.w3.org/2000/svg" width="24" height="24" fill="none"><g clip-path="url(#a)"><g><path fill="#121212" d="M21.678 7.98002L20.263 9.39302L18.143 7.27302L16.021 9.39302L19.556 12.929L18.142 14.343L17.435 13.636L11.071 20H5.41403L3.29303 22.121L1.87903 20.707L4.00003 18.586V12.929L10.364 6.56502L9.65703 5.85802L11.071 4.44402L14.607 7.97902L16.727 5.85802L14.607 3.73702L16.021 2.32202L21.678 7.97902V7.98002ZM16.021 12.222L11.778 7.97902L10.364 9.39302L12.485 11.515L11.071 12.929L8.95003 10.808L7.53603 12.222L9.65603 14.343L8.24303 15.757L6.12103 13.636L6.00003 13.757V18H10.243L16.021 12.222Z"/></g></g><defs><clipPath id="a"><rect width="24" height="24" fill="white"/></clipPath></defs></svg>

<svg width="24" height="24" fill="none" xmlns="http://www.w3.org/2000/svg"><g clip-path="url(#a)"><path d="m21.678 7.98-1.415 1.413-2.12-2.12-2.122 2.12 3.535 3.536-1.414 1.414-.707-.707L11.071 20H5.414l-2.121 2.121-1.414-1.414L4 18.586v-5.657l6.364-6.364-.707-.707 1.414-1.414 3.536 3.535 2.12-2.121-2.12-2.121 1.414-1.415 5.657 5.657v.001Zm-5.657 4.242-4.243-4.243-1.414 1.414 2.121 2.122-1.414 1.414-2.121-2.121-1.414 1.414 2.12 2.121-1.413 1.414-2.122-2.121-.121.121V18h4.243l5.778-5.778Z" /></g><defs><clipPath id="a"><path fill="#fff" d="M0 0h24v24H0z"/></clipPath></defs></svg>
